X:58
M:2/4
L:1/8
Q:1/2=80
K:G
gafg|efdf|gafg|e2d2|gafg|edeg|dBcA|G2 [G2G,2]:|

